assets/images/icons/money_tick.svg

<svg xmlns="http://www.w3.org/2000/svg" width="800" height="800" fill="none" viewBox="0 0 24 24"><g fill="#5A121A"><path d="M17 4H7C4 4 2 5.5 2 9v3.56c0 .37.38.6.71.45.98-.45 2.11-.62 3.3-.41 2.63.47 4.56 2.91 4.49 5.58-.01.42-.07.83-.18 1.23-.08.31.17.6.49.6H17c3 0 5-1.5 5-5V9c0-3.5-2-5-5-5Zm-5 10.5a2.5 2.5 0 0 1 0-5 2.5 2.5 0 0 1 0 5Zm7.25-.5c0 .41-.34.75-.75.75s-.75-.34-.75-.75v-4c0-.41.34-.75.75-.75s.75.34.75.75v4Z"/><path d="M5 14c-2.21 0-4 1.79-4 4 0 .75.21 1.46.58 2.06A3.97 3.97 0 0 0 5 22c1.46 0 2.73-.78 3.42-1.94.37-.6.58-1.31.58-2.06 0-2.21-1.79-4-4-4Zm1.97 3.67-2.13 1.97c-.14.13-.33.2-.51.2-.19 0-.38-.07-.53-.22l-.99-.99a.754.754 0 0 1 0-1.06c.29-.29.77-.29 1.06 0l.48.48 1.6-1.48c.3-.28.78-.26 1.06.04s.26.78-.04 1.06Z"/></g></svg>

<!DOCTYPE svg PUBLIC "-//W3C//DTD SVG 1.1//EN" "http://www.w3.org/Graphics/SVG/1.1/DTD/svg11.dtd">
<!-- Uploaded to: SVG Repo, www.svgrepo.com, Transformed by: SVG Repo Mixer Tools -->
<svg width="800px" height="800px" viewBox="0 0 24 24" fill="none" xmlns="http://www.w3.org/2000/svg">
<g id="SVGRepo_bgCarrier" stroke-width="0"/>
<g id="SVGRepo_tracerCarrier" stroke-linecap="round" stroke-linejoin="round"/>
<g id="SVGRepo_iconCarrier"> <path d="M17 4H7C4 4 2 5.5 2 9V12.56C2 12.93 2.38 13.16 2.71 13.01C3.69 12.56 4.82 12.39 6.01 12.6C8.64 13.07 10.57 15.51 10.5 18.18C10.49 18.6 10.43 19.01 10.32 19.41C10.24 19.72 10.49 20.01 10.81 20.01H17C20 20.01 22 18.51 22 15.01V9C22 5.5 20 4 17 4ZM12 14.5C10.62 14.5 9.5 13.38 9.5 12C9.5 10.62 10.62 9.5 12 9.5C13.38 9.5 14.5 10.62 14.5 12C14.5 13.38 13.38 14.5 12 14.5ZM19.25 14C19.25 14.41 18.91 14.75 18.5 14.75C18.09 14.75 17.75 14.41 17.75 14V10C17.75 9.59 18.09 9.25 18.5 9.25C18.91 9.25 19.25 9.59 19.25 10V14Z" fill="#5A121A"/> <path d="M5 14C2.79 14 1 15.79 1 18C1 18.75 1.21 19.46 1.58 20.06C2.27 21.22 3.54 22 5 22C6.46 22 7.73 21.22 8.42 20.06C8.79 19.46 9 18.75 9 18C9 15.79 7.21 14 5 14ZM6.97 17.67L4.84 19.64C4.7 19.77 4.51 19.84 4.33 19.84C4.14 19.84 3.95 19.77 3.8 19.62L2.81 18.63C2.52 18.34 2.52 17.86 2.81 17.57C3.1 17.28 3.58 17.28 3.87 17.57L4.35 18.05L5.95 16.57C6.25 16.29 6.73 16.31 7.01 16.61C7.29 16.91 7.27 17.39 6.97 17.67Z" fill="#5A121A"/> </g>
</svg>
